X:1
T:Yosemite, 87.87
T:Yosemite, 87.87
T:“S.A.G.M. Leaflets,” before 1903
T:Public Domain Courtesy of the Cyber Hymnal™
C:“S.A.G.M. Leaflets,” before 1903
Z:Public Domain
Z:Courtesy of the Cyber Hymnal™
%%score ( 1 2 ) ( 3 4 )
L:1/8
Q:1/4=108
M:4/4
K:D
V:1 treble 
V:2 treble 
V:3 bass 
V:4 bass 
V:1
 [A,D]3 [A,D] [DG]2 [DF]2 | [CE]3 [CF] [CE]2 [B,D]2 | [DB]3 [GB] [^GB]2 [GB]2 | %3
 [^Gc]2 [Gd]2 [Ac]4 | [Ad]3 A [Gc]2 [GB]2 | [^GB]3 [Gc] [GB]2 [EA]2 | [Ad]3 [FA] [DB]2 [DG]2 | %7
 [CE]2 [CA]2 [A,D]4 |] %8
V:2
 x8 | x8 | x8 | x8 | x3 A x4 | x8 | x8 | x8 |] %8
V:3
 [D,F,]3 [D,F,] [D,B,]2 [D,A,]2 | [A,,G,]3 [A,,A,] [A,,G,]2 [B,,F,]2 | G,3 [G,D] [E,D]2 [E,D]2 | %3
 [E,E]2 [E,E]2 E4 | [F,D]3 [F,D] [G,D]2 [G,D]2 | [E,D]3 [E,E] [E,D]2 C2 | %6
 [F,D]3 [F,D] [G,B,]2 [G,B,]2 | [A,,G,]2 [A,,G,]2 [D,F,]4 |] %8
V:4
 x8 | x8 | G,3 x5 | x4 (A,2 G,2) | x8 | x6 (A,G,) | x8 | x8 |] %8

